X: 69
%
T: Burn O'Cairnie
T: Miss Wedderburn
S:Peter Milnes Collection
C:
O:Scotland
B:Keith Norman MacDonald : "The Skye collection of the best reels & strathspeys extant" : 1887
Z:Ralph Palmer
R:Strathspey
M:C
L:1/8
K:A
F | E2 E>F E>FA>c | B>AB>c B>AF>A | E2 E>F E>FA>c | B>AB>c A/2A/2A A ||
c | d2 d>f e<cc<e | B>AB>c B>AFA | d>cd<f e<cc<e | B>AB>c A/2A/2A Ac |
{/e}d>cd<f {/d}c>Bce | B>AB<c B>AF>f | e<ee>f a>ec>e | B>AB>c A/2A/2A A |]
W:Also played as a reel. From Peter Milnes Collection.


